!!!OTL: "Die feste Burg" EIN FESTE BURG IST UNSER GOTT
!!!ARE: Europa, Mitteleuropa, Deutschland
!!!SCT: Z1118
!!!YEM: Copyright 1995, estate of Helmut Schaffrath.
**kern
*ICvox
*Ivox
*M4/4
*k[f#c#]
*D:
{2dd
=1
2dd
2dd
=2
4a
4b
2cc#
=3
4dd
4cc#
2b
=4
2a}
{2dd
=5
2cc#
2b
=6
2a
4b
4a
=7
4g
4f#
2e
=8
2d}
{2dd
=9
2dd
2dd
=10
4a
4b
2cc#
=11
4dd
4cc#
2b
=12
2a}
{2dd
=13
2cc#
2b
=14
2a
4b
4a
=15
4g
4f#
2e
=16
2d}
{2d
=17
2a
2b
=18
2a
2g#
=19
2a}
{2d
=20
2a
2f#
=21
2b
2cc#
=22
2dd}
{2cc#
=23
2dd
2cc#
=24
1b
=25
2a}
{2b
=26
2b
2a
=27
2b
2g
=28
2f#}
{2dd
=29
2cc#
2b
=30
2a
4b
4a
=31
4g
4f#
2e
=32
2d}
==
!!!AGN: religioeses Lied
!!!ONB: ESAC (Essen Associative Code) Database: ZUCCAL
!!!AMT: simple quadruple
!!!AIN: vox
!!!EED: Helmut Schaffrath
!!!EEV: 1.0
*-
